svg/emoji/silent_fill.svg

<?xml version="1.0" encoding="UTF-8"?>
<svg width="24px" height="24px" viewBox="0 0 24 24" version="1.1" xmlns="http://www.w3.org/2000/svg" xmlns:xlink="http://www.w3.org/1999/xlink">
    <title>silent_fill</title>
    <g id="Icon" stroke="none" stroke-width="1" fill="none" fill-rule="evenodd">
        <g id="Emoji" transform="translate(-672.000000, -48.000000)">
            <g id="silent_fill" transform="translate(672.000000, 48.000000)">
                <path d="M24,0 L24,24 L0,24 L0,0 L24,0 Z M12.5935,23.2578 L12.5819,23.2595 L12.5109,23.295 L12.4919,23.2987 L12.4767,23.295 L12.4057,23.2595 C12.3958,23.2564 12.387,23.259 12.3821,23.2649 L12.378,23.2758 L12.3609,23.7031 L12.3659,23.7235 L12.3769,23.7357 L12.4805,23.8097 L12.4953,23.8136 L12.5071,23.8097 L12.6107,23.7357 L12.6233,23.7197 L12.6267,23.7031 L12.6096,23.2758 C12.6076,23.2657 12.601,23.2593 12.5935,23.2578 Z M12.8584,23.1453 L12.8445,23.1473 L12.6598,23.2397 L12.6499,23.2499 L12.6472,23.2611 L12.6651,23.6906 L12.6699,23.7034 L12.6784,23.7105 L12.8793,23.8032 C12.8914,23.8069 12.9022,23.803 12.9078,23.7952 L12.9118,23.7812 L12.8777,23.1665 C12.8753,23.1546 12.8674,23.147 12.8584,23.1453 Z M12.143,23.1473 C12.1332,23.1424 12.1222,23.1453 12.1156,23.1526 L12.1099,23.1665 L12.0758,23.7812 C12.0751,23.7927 12.0828,23.8019 12.0926,23.8046 L12.1083,23.8032 L12.3092,23.7105 L12.3186,23.7024 L12.3225,23.6906 L12.3404,23.2611 L12.3372,23.2485 L12.3278,23.2397 L12.143,23.1473 Z" id="MingCute" fill-rule="nonzero"></path>
                <path d="M12,2 C17.5228,2 22,6.47715 22,12 C22,17.5228 17.5228,22 12,22 C6.47715,22 2,17.5228 2,12 C2,6.47715 6.47715,2 12,2 Z M9.79289,12.7929 C9.40237,13.1834 9.40237,13.8166 9.79289,14.2071 L10.5858,15 L9.79289,15.7929 C9.40237,16.1834 9.40237,16.8166 9.79289,17.2071 C10.1834,17.5976 10.8166,17.5976 11.2071,17.2071 L12,16.4142 L12.7929,17.2071 C13.1834,17.5976 13.8166,17.5976 14.2071,17.2071 C14.5976,16.8166 14.5976,16.1834 14.2071,15.7929 L13.4142,15 L14.2071,14.2071 C14.5976,13.8166 14.5976,13.1834 14.2071,12.7929 C13.8166,12.4024 13.1834,12.4024 12.7929,12.7929 L12,13.5858 L11.2071,12.7929 C10.8166,12.4024 10.1834,12.4024 9.79289,12.7929 Z M8.5,8 C7.67157,8 7,8.67157 7,9.5 C7,10.3284 7.67157,11 8.5,11 C9.32843,11 10,10.3284 10,9.5 C10,8.67157 9.32843,8 8.5,8 Z M15.5,8 C14.6716,8 14,8.67157 14,9.5 C14,10.3284 14.6716,11 15.5,11 C16.3284,11 17,10.3284 17,9.5 C17,8.67157 16.3284,8 15.5,8 Z" id="形状" fill="#09244B"></path>
            </g>
        </g>
    </g>
</svg>

<svg xmlns="http://www.w3.org/2000/svg" width="24" height="24"><g fill="none" fill-rule="evenodd"><path d="M24 0v24H0V0h24ZM12.594 23.258l-.012.002-.071.035-.02.004-.014-.004-.071-.036c-.01-.003-.019 0-.024.006l-.004.01-.017.428.005.02.01.013.104.074.015.004.012-.004.104-.074.012-.016.004-.017-.017-.427c-.002-.01-.009-.017-.016-.018Zm.264-.113-.014.002-.184.093-.01.01-.003.011.018.43.005.012.008.008.201.092c.012.004.023 0 .029-.008l.004-.014-.034-.614c-.003-.012-.01-.02-.02-.022Zm-.715.002a.023.023 0 0 0-.027.006l-.006.014-.034.614c0 .012.007.02.017.024l.015-.002.201-.093.01-.008.003-.011.018-.43-.003-.012-.01-.01-.184-.092Z"/><path fill="#09244B" d="M12 2c5.523 0 10 4.477 10 10s-4.477 10-10 10S2 17.523 2 12 6.477 2 12 2ZM9.793 12.793a1 1 0 0 0 0 1.414l.793.793-.793.793a1 1 0 1 0 1.414 1.414l.793-.793.793.793a1 1 0 0 0 1.414-1.414L13.414 15l.793-.793a1 1 0 0 0-1.414-1.414l-.793.793-.793-.793a1 1 0 0 0-1.414 0ZM8.5 8a1.5 1.5 0 1 0 0 3 1.5 1.5 0 0 0 0-3Zm7 0a1.5 1.5 0 1 0 0 3 1.5 1.5 0 0 0 0-3Z"/></g></svg>
